data/resources/images/flags/NTSC-U.svg

<svg height="600" viewBox="0 0 5850 3900" width="900" xmlns="http://www.w3.org/2000/svg" xmlns:xlink="http://www.w3.org/1999/xlink"><defs><path id="a" d="m0 0h5850v3900h-5850z"/><clipPath id="b"><use clip-rule="evenodd" xlink:href="#a"/></clipPath></defs><g clip-path="url(#b)"><use fill="#fff" xlink:href="#a"/><g transform="translate(.484375 -.000031)"><path d="m0 0h5850v3900h-5850z" fill="#b22234"/><path d="m5850 1800h-5850m0 600h5850m0 600h-5850m0-3000h5850m-5850 1200h5850m0-600h-5850" stroke="#fff" stroke-width="300" transform="translate(0 450)"/><path d="m0 0h2925v2100h-2925z" fill="#3c3b6e"/><g fill="#fff" transform="translate(113 83)"><path d="m114.127 0 70.534 217.082-184.661-134.1641h228.254l-184.6614 134.1641z"/><path d="m114.127 0 70.534 217.082-184.661-134.1641h228.254l-184.6614 134.1641z" transform="translate(0 420)"/><path d="m114.127 0 70.534 217.082-184.661-134.1641h228.254l-184.6614 134.1641z" transform="translate(0 840)"/><path d="m114.127 0 70.534 217.082-184.661-134.1641h228.254l-184.6614 134.1641z" transform="translate(0 1260)"/><path d="m114.127 0 70.534 217.082-184.661-134.1641h228.254l-184.6614 134.1641z" transform="translate(0 1680)"/><path d="m114.127 0 70.534 217.082-184.661-134.1641h228.254l-184.6614 134.1641z" transform="translate(247 210)"/><path d="m114.127 0 70.534 217.082-184.661-134.1641h228.254l-184.6614 134.1641z" transform="translate(247 630)"/><path d="m114.127 0 70.534 217.082-184.661-134.1641h228.254l-184.6614 134.1641z" transform="translate(247 1050)"/><path d="m114.127 0 70.534 217.082-184.661-134.1641h228.254l-184.6614 134.1641z" transform="translate(247 1470)"/><path d="m114.127 0 70.534 217.082-184.661-134.1641h228.254l-184.6614 134.1641z" transform="translate(494)"/><path d="m114.127 0 70.534 217.082-184.661-134.1641h228.254l-184.6614 134.1641z" transform="translate(494 420)"/><path d="m114.127 0 70.534 217.082-184.661-134.1641h228.254l-184.6614 134.1641z" transform="translate(494 840)"/><path d="m114.127 0 70.534 217.082-184.661-134.1641h228.254l-184.6614 134.1641z" transform="translate(494 1260)"/><path d="m114.127 0 70.534 217.082-184.661-134.1641h228.254l-184.6614 134.1641z" transform="translate(494 1680)"/><path d="m114.127 0 70.534 217.082-184.661-134.1641h228.254l-184.6614 134.1641z" transform="translate(741 210)"/><path d="m114.127 0 70.534 217.082-184.661-134.1641h228.254l-184.6614 134.1641z" transform="translate(741 630)"/><path d="m114.127 0 70.534 217.082-184.661-134.1641h228.254l-184.6614 134.1641z" transform="translate(741 1050)"/><path d="m114.127 0 70.534 217.082-184.661-134.1641h228.254l-184.6614 134.1641z" transform="translate(741 1470)"/><path d="m114.127 0 70.534 217.082-184.661-134.1641h228.254l-184.6614 134.1641z" transform="translate(988)"/><path d="m114.127 0 70.534 217.082-184.661-134.1641h228.254l-184.6614 134.1641z" transform="translate(988 420)"/><path d="m114.127 0 70.534 217.082-184.661-134.1641h228.254l-184.6614 134.1641z" transform="translate(988 840)"/><path d="m114.127 0 70.534 217.082-184.661-134.1641h228.254l-184.6614 134.1641z" transform="translate(988 1260)"/><path d="m114.127 0 70.534 217.082-184.661-134.1641h228.254l-184.6614 134.1641z" transform="translate(988 1680)"/><path d="m114.127 0 70.534 217.082-184.661-134.1641h228.254l-184.6614 134.1641z" transform="translate(1235 210)"/><path d="m114.127 0 70.534 217.082-184.661-134.1641h228.254l-184.6614 134.1641z" transform="translate(1235 630)"/><path d="m114.127 0 70.534 217.082-184.661-134.1641h228.254l-184.6614 134.1641z" transform="translate(1235 1050)"/><path d="m114.127 0 70.534 217.082-184.661-134.1641h228.254l-184.6614 134.1641z" transform="translate(1235 1470)"/><g transform="translate(1482)"><path d="m114.127 0 70.534 217.082-184.661-134.1641h228.254l-184.6614 134.1641z"/><path d="m114.127 0 70.534 217.082-184.661-134.1641h228.254l-184.6614 134.1641z" transform="translate(0 420)"/><path d="m114.127 0 70.534 217.082-184.661-134.1641h228.254l-184.6614 134.1641z" transform="translate(0 840)"/><path d="m114.127 0 70.534 217.082-184.661-134.1641h228.254l-184.6614 134.1641z" transform="translate(0 1260)"/><path d="m114.127 0 70.534 217.082-184.661-134.1641h228.254l-184.6614 134.1641z" transform="translate(0 1680)"/></g><g transform="translate(1729.0007 210)"><path d="m114.127 0 70.534 217.082-184.661-134.1641h228.254l-184.6614 134.1641z"/><path d="m114.127 0 70.534 217.082-184.661-134.1641h228.254l-184.6614 134.1641z" transform="translate(0 420)"/><path d="m114.127 0 70.534 217.082-184.661-134.1641h228.254l-184.6614 134.1641z" transform="translate(0 840)"/><path d="m114.127 0 70.534 217.082-184.661-134.1641h228.254l-184.6614 134.1641z" transform="translate(0 1260)"/></g><g transform="translate(1976.001)"><path d="m114.127 0 70.534 217.082-184.661-134.1641h228.254l-184.6614 134.1641z"/><path d="m114.127 0 70.534 217.082-184.661-134.1641h228.254l-184.6614 134.1641z" transform="translate(0 420)"/><path d="m114.127 0 70.534 217.082-184.661-134.1641h228.254l-184.6614 134.1641z" transform="translate(0 840)"/><path d="m114.127 0 70.534 217.082-184.661-134.1641h228.254l-184.6614 134.1641z" transform="translate(0 1260)"/><path d="m114.127 0 70.534 217.082-184.661-134.1641h228.254l-184.6614 134.1641z" transform="translate(0 1680)"/><g transform="translate(247.00006 210)"><path d="m114.127 0 70.534 217.082-184.661-134.1641h228.254l-184.6614 134.1641z"/><path d="m114.127 0 70.534 217.082-184.661-134.1641h228.254l-184.6614 134.1641z" transform="translate(0 420)"/><path d="m114.127 0 70.534 217.082-184.661-134.1641h228.254l-184.6614 134.1641z" transform="translate(0 840)"/><path d="m114.127 0 70.534 217.082-184.661-134.1641h228.254l-184.6614 134.1641z" transform="translate(0 1260)"/></g></g><g transform="translate(2470)"><path d="m114.127 0 70.534 217.082-184.661-134.1641h228.254l-184.6614 134.1641z"/><path d="m114.127 0 70.534 217.082-184.661-134.1641h228.254l-184.6614 134.1641z" transform="translate(0 420)"/><path d="m114.127 0 70.534 217.082-184.661-134.1641h228.254l-184.6614 134.1641z" transform="translate(0 840)"/><path d="m114.127 0 70.534 217.082-184.661-134.1641h228.254l-184.6614 134.1641z" transform="translate(0 1260)"/><path d="m114.127 0 70.534 217.082-184.661-134.1641h228.254l-184.6614 134.1641z" transform="translate(0 1680)"/></g></g></g><g transform="translate(2925.4844 -.000031)"><path d="m0 0h2925v3900h-2925z" fill="#d52b1e" transform="translate(.25)"/><path d="m2925 0h-2925v3900h2925zm-1441.23 2507.42 21.78 417.58h-87.1l21.78-417.58c.64-13.91-5.06-27.36-15.5-36.58-10.44-9.21-24.49-13.2-38.21-10.84l-415.649 73.06 56.129-154.83c4.67-12.64.78-26.84-9.68-35.33l-455.32-368.71 102.581-47.9c14.334-6.77 21.386-23.16 16.451-38.23l-90-276.77 262.258 55.65c14.649 3.05 29.422-4.64 35.323-18.39l50.807-119.52 204.68 219.68c9.61 10.14 24.76 12.72 37.19 6.34s19.16-20.2 16.52-33.92l-98.71-509.03 158.22 91.45c7.51 4.4 16.51 5.49 24.85 3.02 8.35-2.48 15.29-8.3 19.19-16.09l160.64-315.48 160.65 315.48c3.89 7.79 10.83 13.61 19.18 16.09 8.34 2.47 17.34 1.38 24.85-3.02l158.22-91.45-98.71 509.03c-2.64 13.72 4.09 27.54 16.52 33.92s27.58 3.8 37.19-6.34l204.68-219.68 50.81 119.52c5.9 13.75 20.67 21.44 35.32 18.39l262.26-55.65-90 276.77c-4.94 15.07 2.12 31.46 16.45 38.23l102.58 47.9-455.32 368.71c-10.46 8.49-14.35 22.69-9.68 35.33l56.13 154.83-415.65-73.06c-13.72-2.36-27.77 1.63-38.21 10.84-10.44 9.22-16.14 22.67-15.5 36.58z" fill="#fff" fill-rule="evenodd"/></g></g></svg>

<?xml version="1.0" encoding="utf-8"?>
<svg width="900px" height="600px" viewBox="0 0 5850 3900" version="1.1" xmlns:xlink="http://www.w3.org/1999/xlink" xmlns="http://www.w3.org/2000/svg">
  <desc>Vertically split United States and Canada flag, made for identification of the NTSU-U/C region.</desc>
  <defs>
    <rect width="5850" height="3900" id="artboard_1" />
    <clipPath id="clip_1">
      <use xlink:href="#artboard_1" clip-rule="evenodd" />
    </clipPath>
  </defs>
  <g id="Flag-3:2" clip-path="url(#clip_1)">
    <use xlink:href="#artboard_1" stroke="none" fill="#FFFFFF" />
    <g id="flag-us-Copy" transform="translate(0.484375 -3.0517578E-05)">
      <path d="M0 0L5850 0L5850 3900L0 3900L0 0Z" id="Rectangle" fill="#B22234" stroke="none" />
      <path d="M5850 1800L0 1800M0 2400L5850 2400M5850 3000L0 3000M0 0L5850 0M0 1200L5850 1200M5850 600L0 600" transform="translate(0 450)" id="Shape" fill="#000000" stroke="#FFFFFF" stroke-width="300" />
      <path d="M0 0L2925 0L2925 2100L0 2100L0 0Z" id="Rectangle" fill="#3C3B6E" stroke="none" />
      <g id="Group" transform="translate(113 83)">
        <g id="s18">
          <g id="s9">
            <g id="s5">
              <g id="s4">
                <g id="Group">
                  <path d="M114.127 0L184.661 217.082L0 82.9179L228.254 82.9179L43.5926 217.082L114.127 0Z" id="s" fill="#FFFFFF" stroke="none" />
                  <path d="M114.127 0L184.661 217.082L0 82.9179L228.254 82.9179L43.5926 217.082L114.127 0Z" transform="translate(0 420)" id="s" fill="#FFFFFF" stroke="none" />
                  <path d="M114.127 0L184.661 217.082L0 82.9179L228.254 82.9179L43.5926 217.082L114.127 0Z" transform="translate(0 840)" id="s" fill="#FFFFFF" stroke="none" />
                  <path d="M114.127 0L184.661 217.082L0 82.9179L228.254 82.9179L43.5926 217.082L114.127 0Z" transform="translate(0 1260)" id="s" fill="#FFFFFF" stroke="none" />
                  <path d="M114.127 0L184.661 217.082L0 82.9179L228.254 82.9179L43.5926 217.082L114.127 0Z" transform="translate(0 1680)" id="s" fill="#FFFFFF" stroke="none" />
                  <path d="M114.127 0L184.661 217.082L0 82.9179L228.254 82.9179L43.5926 217.082L114.127 0Z" transform="translate(247 210)" id="s" fill="#FFFFFF" stroke="none" />
                  <path d="M114.127 0L184.661 217.082L0 82.9179L228.254 82.9179L43.5926 217.082L114.127 0Z" transform="translate(247 630)" id="s" fill="#FFFFFF" stroke="none" />
                  <path d="M114.127 0L184.661 217.082L0 82.9179L228.254 82.9179L43.5926 217.082L114.127 0Z" transform="translate(247 1050)" id="s" fill="#FFFFFF" stroke="none" />
                  <path d="M114.127 0L184.661 217.082L0 82.9179L228.254 82.9179L43.5926 217.082L114.127 0Z" transform="translate(247 1470)" id="s" fill="#FFFFFF" stroke="none" />
                  <path d="M114.127 0L184.661 217.082L0 82.9179L228.254 82.9179L43.5926 217.082L114.127 0Z" transform="translate(494 0)" id="s" fill="#FFFFFF" stroke="none" />
                  <path d="M114.127 0L184.661 217.082L0 82.9179L228.254 82.9179L43.5926 217.082L114.127 0Z" transform="translate(494 420)" id="s" fill="#FFFFFF" stroke="none" />
                  <path d="M114.127 0L184.661 217.082L0 82.9179L228.254 82.9179L43.5926 217.082L114.127 0Z" transform="translate(494 840)" id="s" fill="#FFFFFF" stroke="none" />
                  <path d="M114.127 0L184.661 217.082L0 82.9179L228.254 82.9179L43.5926 217.082L114.127 0Z" transform="translate(494 1260)" id="s" fill="#FFFFFF" stroke="none" />
                  <path d="M114.127 0L184.661 217.082L0 82.9179L228.254 82.9179L43.5926 217.082L114.127 0Z" transform="translate(494 1680)" id="s" fill="#FFFFFF" stroke="none" />
                  <path d="M114.127 0L184.661 217.082L0 82.9179L228.254 82.9179L43.5926 217.082L114.127 0Z" transform="translate(741 210)" id="s" fill="#FFFFFF" stroke="none" />
                  <path d="M114.127 0L184.661 217.082L0 82.9179L228.254 82.9179L43.5926 217.082L114.127 0Z" transform="translate(741 630)" id="s" fill="#FFFFFF" stroke="none" />
                  <path d="M114.127 0L184.661 217.082L0 82.9179L228.254 82.9179L43.5926 217.082L114.127 0Z" transform="translate(741 1050)" id="s" fill="#FFFFFF" stroke="none" />
                  <path d="M114.127 0L184.661 217.082L0 82.9179L228.254 82.9179L43.5926 217.082L114.127 0Z" transform="translate(741 1470)" id="s" fill="#FFFFFF" stroke="none" />
                  <path d="M114.127 0L184.661 217.082L0 82.9179L228.254 82.9179L43.5926 217.082L114.127 0Z" transform="translate(988 0)" id="s" fill="#FFFFFF" stroke="none" />
                  <path d="M114.127 0L184.661 217.082L0 82.9179L228.254 82.9179L43.5926 217.082L114.127 0Z" transform="translate(988 420)" id="s" fill="#FFFFFF" stroke="none" />
                  <path d="M114.127 0L184.661 217.082L0 82.9179L228.254 82.9179L43.5926 217.082L114.127 0Z" transform="translate(988 840)" id="s" fill="#FFFFFF" stroke="none" />
                  <path d="M114.127 0L184.661 217.082L0 82.9179L228.254 82.9179L43.5926 217.082L114.127 0Z" transform="translate(988 1260)" id="s" fill="#FFFFFF" stroke="none" />
                  <path d="M114.127 0L184.661 217.082L0 82.9179L228.254 82.9179L43.5926 217.082L114.127 0Z" transform="translate(988 1680)" id="s" fill="#FFFFFF" stroke="none" />
                  <path d="M114.127 0L184.661 217.082L0 82.9179L228.254 82.9179L43.5926 217.082L114.127 0Z" transform="translate(1235 210)" id="s" fill="#FFFFFF" stroke="none" />
                  <path d="M114.127 0L184.661 217.082L0 82.9179L228.254 82.9179L43.5926 217.082L114.127 0Z" transform="translate(1235 630)" id="s" fill="#FFFFFF" stroke="none" />
                  <path d="M114.127 0L184.661 217.082L0 82.9179L228.254 82.9179L43.5926 217.082L114.127 0Z" transform="translate(1235 1050)" id="s" fill="#FFFFFF" stroke="none" />
                  <path d="M114.127 0L184.661 217.082L0 82.9179L228.254 82.9179L43.5926 217.082L114.127 0Z" transform="translate(1235 1470)" id="s" fill="#FFFFFF" stroke="none" />
                  <g id="s5" transform="translate(1482 0)">
                    <g id="s4">
                      <path d="M114.127 0L184.661 217.082L0 82.9179L228.254 82.9179L43.5926 217.082L114.127 0Z" id="s" fill="#FFFFFF" stroke="none" />
                      <path d="M114.127 0L184.661 217.082L0 82.9179L228.254 82.9179L43.5926 217.082L114.127 0Z" transform="translate(0 420)" id="s" fill="#FFFFFF" stroke="none" />
                      <path d="M114.127 0L184.661 217.082L0 82.9179L228.254 82.9179L43.5926 217.082L114.127 0Z" transform="translate(0 840)" id="s" fill="#FFFFFF" stroke="none" />
                      <path d="M114.127 0L184.661 217.082L0 82.9179L228.254 82.9179L43.5926 217.082L114.127 0Z" transform="translate(0 1260)" id="s" fill="#FFFFFF" stroke="none" />
                    </g>
                    <path d="M114.127 0L184.661 217.082L0 82.9179L228.254 82.9179L43.5926 217.082L114.127 0Z" transform="translate(0 1680)" id="s" fill="#FFFFFF" stroke="none" />
                  </g>
                  <g id="s4" transform="translate(1729.0007 210)">
                    <path d="M114.127 0L184.661 217.082L0 82.9179L228.254 82.9179L43.5926 217.082L114.127 0Z" id="s" fill="#FFFFFF" stroke="none" />
                    <path d="M114.127 0L184.661 217.082L0 82.9179L228.254 82.9179L43.5926 217.082L114.127 0Z" transform="translate(0 420)" id="s" fill="#FFFFFF" stroke="none" />
                    <path d="M114.127 0L184.661 217.082L0 82.9179L228.254 82.9179L43.5926 217.082L114.127 0Z" transform="translate(0 840)" id="s" fill="#FFFFFF" stroke="none" />
                    <path d="M114.127 0L184.661 217.082L0 82.9179L228.254 82.9179L43.5926 217.082L114.127 0Z" transform="translate(0 1260)" id="s" fill="#FFFFFF" stroke="none" />
                  </g>
                  <g id="s9" transform="translate(1976.001 0)">
                    <g id="s5">
                      <g id="s4">
                        <path d="M114.127 0L184.661 217.082L0 82.9179L228.254 82.9179L43.5926 217.082L114.127 0Z" id="s" fill="#FFFFFF" stroke="none" />
                        <path d="M114.127 0L184.661 217.082L0 82.9179L228.254 82.9179L43.5926 217.082L114.127 0Z" transform="translate(0 420)" id="s" fill="#FFFFFF" stroke="none" />
                        <path d="M114.127 0L184.661 217.082L0 82.9179L228.254 82.9179L43.5926 217.082L114.127 0Z" transform="translate(0 840)" id="s" fill="#FFFFFF" stroke="none" />
                        <path d="M114.127 0L184.661 217.082L0 82.9179L228.254 82.9179L43.5926 217.082L114.127 0Z" transform="translate(0 1260)" id="s" fill="#FFFFFF" stroke="none" />
                      </g>
                      <path d="M114.127 0L184.661 217.082L0 82.9179L228.254 82.9179L43.5926 217.082L114.127 0Z" transform="translate(0 1680)" id="s" fill="#FFFFFF" stroke="none" />
                    </g>
                    <g id="s4" transform="translate(247.00006 210)">
                      <path d="M114.127 0L184.661 217.082L0 82.9179L228.254 82.9179L43.5926 217.082L114.127 0Z" id="s" fill="#FFFFFF" stroke="none" />
                      <path d="M114.127 0L184.661 217.082L0 82.9179L228.254 82.9179L43.5926 217.082L114.127 0Z" transform="translate(0 420)" id="s" fill="#FFFFFF" stroke="none" />
                      <path d="M114.127 0L184.661 217.082L0 82.9179L228.254 82.9179L43.5926 217.082L114.127 0Z" transform="translate(0 840)" id="s" fill="#FFFFFF" stroke="none" />
                      <path d="M114.127 0L184.661 217.082L0 82.9179L228.254 82.9179L43.5926 217.082L114.127 0Z" transform="translate(0 1260)" id="s" fill="#FFFFFF" stroke="none" />
                    </g>
                  </g>
                  <g id="s5" transform="translate(2470 0)">
                    <g id="s4">
                      <path d="M114.127 0L184.661 217.082L0 82.9179L228.254 82.9179L43.5926 217.082L114.127 0Z" id="s" fill="#FFFFFF" stroke="none" />
                      <path d="M114.127 0L184.661 217.082L0 82.9179L228.254 82.9179L43.5926 217.082L114.127 0Z" transform="translate(0 420)" id="s" fill="#FFFFFF" stroke="none" />
                      <path d="M114.127 0L184.661 217.082L0 82.9179L228.254 82.9179L43.5926 217.082L114.127 0Z" transform="translate(0 840)" id="s" fill="#FFFFFF" stroke="none" />
                      <path d="M114.127 0L184.661 217.082L0 82.9179L228.254 82.9179L43.5926 217.082L114.127 0Z" transform="translate(0 1260)" id="s" fill="#FFFFFF" stroke="none" />
                    </g>
                    <path d="M114.127 0L184.661 217.082L0 82.9179L228.254 82.9179L43.5926 217.082L114.127 0Z" transform="translate(0 1680)" id="s" fill="#FFFFFF" stroke="none" />
                  </g>
                </g>
              </g>
            </g>
            <g id="s4" transform="translate(266.74683 216.91797)" />
          </g>
          <g id="s9" transform="translate(513.7468 6.9179688)">
            <g id="s5">
              <g id="s4" />
            </g>
            <g id="s4" transform="translate(247 210)" />
          </g>
        </g>
        <g id="s18" transform="translate(1007.7468 6.9179688)">
          <g id="s9">
            <g id="s5">
              <g id="s4" />
            </g>
            <g id="s4" transform="translate(247 210)" />
          </g>
          <g id="s9" transform="translate(494 0)" />
        </g>
      </g>
    </g>
    <g id="Group-Copy" transform="translate(2925.4844 -3.0517578E-05)">
      <path d="M0 0L2925 0L2925 3900L0 3900L0 0Z" transform="translate(0.25 0)" id="Rectangle" fill="#D52B1E" stroke="none" />
      <path d="M2925 0L0 0L0 3900L2925 3900L2925 0ZM1483.77 2507.42L1505.55 2925L1418.45 2925L1440.23 2507.42C1440.87 2493.51 1435.17 2480.06 1424.73 2470.84C1414.29 2461.63 1400.24 2457.64 1386.52 2460L970.871 2533.06L1027 2378.23C1031.67 2365.59 1027.78 2351.39 1017.32 2342.9L562 1974.19L664.581 1926.29C678.915 1919.52 685.967 1903.13 681.032 1888.06L591.032 1611.29L853.29 1666.94C867.939 1669.99 882.712 1662.3 888.613 1648.55L939.42 1529.03L1144.1 1748.71C1153.71 1758.85 1168.86 1761.43 1181.29 1755.05C1193.72 1748.67 1200.45 1734.85 1197.81 1721.13L1099.1 1212.1L1257.32 1303.55C1264.83 1307.95 1273.83 1309.04 1282.17 1306.57C1290.52 1304.09 1297.46 1298.27 1301.36 1290.48L1462 975L1622.65 1290.48C1626.54 1298.27 1633.48 1304.09 1641.83 1306.57C1650.17 1309.04 1659.17 1307.95 1666.68 1303.55L1824.9 1212.1L1726.19 1721.13C1723.55 1734.85 1730.28 1748.67 1742.71 1755.05C1755.14 1761.43 1770.29 1758.85 1779.9 1748.71L1984.58 1529.03L2035.39 1648.55C2041.29 1662.3 2056.06 1669.99 2070.71 1666.94L2332.97 1611.29L2242.97 1888.06C2238.03 1903.13 2245.09 1919.52 2259.42 1926.29L2362 1974.19L1906.68 2342.9C1896.22 2351.39 1892.33 2365.59 1897 2378.23L1953.13 2533.06L1537.48 2460C1523.76 2457.64 1509.71 2461.63 1499.27 2470.84C1488.83 2480.06 1483.13 2493.51 1483.77 2507.42Z" id="Shape" fill="#FFFFFF" fill-rule="evenodd" stroke="none" />
    </g>
  </g>
</svg>
